!!!OTL: Das arme Maegdlein. / Vereinfachung bei Werlin. (1646.)
!!!ARE: Europa, Mitteleuropa, Deutschland
!!!SCT: A0212B
!!!TXL: @@GMH
!!!YEM: Copyright 1995, estate of Helmut Schaffrath.
**kern	**text
*M4/4	*
*met(c)	*
*k[]	*
*a:	*
=1	=1
2r	.
4r	.
{4a	Ich
=2	=2
4a	ar-
4a	-mer
4a	Sünder
4e	.
=3	=3
(<8aL	klag
8g#	.
8a	.
8bJ	.
4cc)	.
4b	mich
=4	=4
2a	ſehr
4r}	.
{4a	⁊c.
=5	=5
4b	.
4b	.
4ee	.
4b	.
=6	=6
2cc	.
4b}	.
{4a	Ich
=7	=7
4a	ar-
4a	-mer
4a	Sünder
4e	.
=8	=8
(<8aL	klag
8g#	.
8a	.
8bJ	.
4cc)	.
4b	mich
=9	=9
2a	ſehr
4r}	.
{4a	⁊c.
=10	=10
4b	.
4b	.
4ee	.
4b	.
=11	=11
2cc	.
2b}	.
=12	=12
{4r	.
4b	.
4cc	.
4b	.
=13	=13
4ee	.
4dd	.
4cc	.
4b	.
=14	=14
2a	.
4r}	.
{4b/	.
=15	=15
4g	.
4e	.
4b/	.
4a	.
=16	=16
(<4g	.
8f#L	.
8eJ	.
2f#)	.
=17	=17
2e	.
4r}	.
{4e	.
=18	=18
4e	.
4e	.
4b/	.
4b/	.
=19	=19
4g	.
4f#	.
2e}	.
=20	=20
{4r	.
4ee	.
4ee	.
4ee	.
=21	=21
4b	.
4ee	.
4dd	.
4cc	.
=22	=22
2b	.
4r}	.
{4ee	.
=23	=23
4cc	.
4b	.
4dd	.
4cc	.
=24	=24
2b/	.
2a}	.
==	==
!!!GTL: Liebeslieder
!!!AGN: Romanze, Ballade, Lied
!! Vereinfachung bei Werlin 1646.
!!!ONB: ESAC (Essen Associative Code) Database: ALTDEU
!!!AMT: simple quadruple
!!!AIN: vox
!!!EED: Helmut Schaffrath
!!!EEV: 1.0
!!!RDF**kern: < = below
!!!URL-scan: https://rosdok.uni-rostock.de/mcrviewer/recordIdentifier/rosdok_ppn738218359/iview2/phys_0369.iview2?x=-1816.6124862433817&y=1576.718137772521&scale=0.262872707487861&rotation=0&layout=singlePageLayout
!!!ENC: Anna Maria Matuszewska
!!!EEV: 2024/08/03
*-	*-
